packages/foundations/assets/icons/functional/images/audio & video/fast_backward_10_24.svg

<svg width="24" height="24" viewBox="0 0 24 24" fill="none" xmlns="http://www.w3.org/2000/svg">
<g clip-path="url(#clip0_184_230)">
<path fill-rule="evenodd" clip-rule="evenodd" d="M21.5721 13.0171C21.5721 8.89206 18.3771 5.45006 14.2521 5.10906L14.6561 4.70606C14.7628 4.61341 14.8484 4.49899 14.9072 4.37049C14.9661 4.24199 14.9967 4.10238 14.9971 3.96106C14.9971 3.43406 14.5321 3.00006 13.9741 3.00006C13.7383 2.99563 13.5081 3.07223 13.3221 3.21706L11.0591 5.51206C10.9675 5.59999 10.8953 5.70607 10.8471 5.82351C10.7989 5.94094 10.7757 6.06715 10.7791 6.19406C10.7791 6.47406 10.8731 6.72106 11.0591 6.90706L13.2281 9.11006C13.4141 9.29606 13.6631 9.39006 13.9731 9.39006C14.5001 9.39006 14.9341 8.92406 14.9341 8.39706C14.9357 8.26758 14.9088 8.13931 14.8553 8.02143C14.8017 7.90354 14.7227 7.79893 14.6241 7.71506L14.0661 7.09506C17.1661 7.31206 19.5861 9.91706 19.5861 13.0491C19.5861 14.5691 18.9661 16.0881 17.8181 17.2661C17.7289 17.3559 17.6584 17.4625 17.6105 17.5798C17.5626 17.697 17.5383 17.8225 17.5391 17.9491C17.5411 18.2115 17.6463 18.4626 17.8319 18.6482C18.0175 18.8338 18.2686 18.939 18.5311 18.9411C18.6577 18.9418 18.7832 18.9175 18.9004 18.8696C19.0176 18.8218 19.1242 18.7512 19.2141 18.6621C19.9607 17.9239 20.5535 17.045 20.9581 16.0762C21.3626 15.1074 21.571 14.068 21.5711 13.0181L21.5721 13.0171ZM2.42805 20.0071C2.43014 19.7446 2.53533 19.4935 2.72091 19.3079C2.9065 19.1223 3.15761 19.0172 3.42005 19.0151H4.41305V15.0531L3.94805 15.3321C3.78904 15.4299 3.60673 15.4834 3.42005 15.4871C2.86205 15.4871 2.46005 15.0221 2.46005 14.4941C2.46005 14.1841 2.58305 13.8741 2.86205 13.6571L4.84705 12.3551C5.00205 12.2621 5.18805 12.2001 5.37405 12.2001C5.93205 12.2001 6.39805 12.6341 6.39805 13.1921V19.0151H7.42105C7.68367 19.0172 7.93493 19.1225 8.12054 19.3083C8.30615 19.4941 8.41122 19.7454 8.41305 20.0081C8.41466 20.1388 8.3901 20.2685 8.34082 20.3896C8.29154 20.5107 8.21853 20.6207 8.12609 20.7131C8.03365 20.8055 7.92366 20.8785 7.80257 20.9278C7.68149 20.9771 7.55177 21.0017 7.42105 21.0001H3.42105C3.29025 21.0018 3.16042 20.9773 3.03923 20.9281C2.91803 20.8789 2.80791 20.8059 2.71536 20.7135C2.62282 20.621 2.54972 20.511 2.50037 20.3898C2.45103 20.2687 2.42644 20.1379 2.42805 20.0071ZM12.4051 12.0001C14.1731 12.0001 15.3821 13.3341 15.3821 15.3181V17.5821C15.3821 19.5671 14.1721 20.9001 12.4051 20.9001C10.6061 20.9001 9.42805 19.5671 9.42805 17.6131V15.2561C9.42805 13.2721 10.6061 12.0001 12.4051 12.0001ZM12.4281 14.0001C11.8031 14.0001 11.4281 14.4721 11.4281 15.2581V17.6791C11.4281 18.5291 11.8031 19.0001 12.4281 19.0001C13.0531 19.0001 13.4281 18.5281 13.4281 17.6481V15.3521C13.4281 14.5031 13.0531 14.0001 12.4281 14.0001Z" fill="#1A1C1F"/>
</g>
<defs>
<clipPath id="clip0_184_230">
<rect width="24" height="24" fill="white"/>
</clipPath>
</defs>
</svg>

<svg xmlns="http://www.w3.org/2000/svg" width="24" height="24" fill="none"><g clip-path="url(#a)"><path fill="#1A1C1F" fill-rule="evenodd" d="M21.572 13.017c0-4.125-3.195-7.567-7.32-7.908l.404-.403a1 1 0 0 0 .341-.745c0-.527-.465-.96-1.023-.96a1.03 1.03 0 0 0-.652.216L11.06 5.512a.91.91 0 0 0-.28.682c0 .28.094.527.28.713l2.17 2.203q.278.28.744.28c.527 0 .961-.466.961-.993a.88.88 0 0 0-.31-.682l-.558-.62c3.1.217 5.52 2.822 5.52 5.954 0 1.52-.62 3.04-1.768 4.217a.96.96 0 0 0-.279.683 1 1 0 0 0 .992.992.96.96 0 0 0 .683-.279 7.94 7.94 0 0 0 2.357-5.644zm-19.144 6.99a1 1 0 0 1 .992-.992h.993v-3.962l-.465.28a1.05 1.05 0 0 1-.528.154c-.558 0-.96-.465-.96-.993 0-.31.123-.62.402-.837l1.985-1.302c.155-.093.341-.155.527-.155.558 0 1.024.434 1.024.992v5.823h1.023a1 1 0 0 1 .705 1.698.98.98 0 0 1-.705.287h-4a.98.98 0 0 1-.993-.993M12.405 12c1.768 0 2.977 1.334 2.977 3.318v2.264c0 1.985-1.21 3.318-2.977 3.318-1.799 0-2.977-1.333-2.977-3.287v-2.357c0-1.984 1.178-3.256 2.977-3.256m.023 2c-.625 0-1 .472-1 1.258v2.421c0 .85.375 1.321 1 1.321s1-.472 1-1.352v-2.296c0-.849-.375-1.352-1-1.352" clip-rule="evenodd"/></g><defs><clipPath id="a"><path fill="#fff" d="M0 0h24v24H0z"/></clipPath></defs></svg>
